src/icons/social/uEEC8-social-steemit-square.svg

<svg xmlns="http://www.w3.org/2000/svg" viewBox="0 0 1024 1024"><path d="M753.31982,415.55c90.82031,91.13989,87.61035,245.33-4.00977,334.61987C703.35986,795.21,634.71,823.82007,581.81982,827.8c-37.3999,3.71-77.46973,4.24-115.93994-.53-56.62988-6.89-97.5-22.52-137.56982-37.63,20.2998-19.6,40.60986-46.62,48.89014-69.94006A53.85651,53.85651,0,0,0,375.58984,677.04a228.10382,228.10382,0,0,1,46.49023-263.3501C473.35986,363.62,543.89014,340.04,615.48,348.78A232.89678,232.89678,0,0,1,753.31982,415.55ZM1024,64V960a63.99512,63.99512,0,0,1-64,64H64A63.99512,63.99512,0,0,1,0,960V64A63.995,63.995,0,0,1,64,0H960A63.995,63.995,0,0,1,1024,64ZM804.87012,357a314.80436,314.80436,0,0,0-110.86035-71.8C717.52,216.05,800.87012,190.88,800.87012,190.88s-194.48-100.94006-409.25-60.67c-71.58984,11.39-140.24023,55.37012-190.46,113.39A298.42684,298.42684,0,0,0,233.48,666.98c19.5,16.68994,63.04,42.65,63.8501,43.98-28.58984,72.59009-119.9502,92.46-119.9502,92.46s120.75,75.51,282.89014,95.12012a595.48427,595.48427,0,0,0,135.97021,1.58C671.31006,894.03,746.1001,854.29,803,798.39,926.1499,677.04,927.21973,479.4,804.87012,357Z"/></svg>

<svg xmlns="http://www.w3.org/2000/svg" viewBox="0 0 1024 1024" role="img"><path d="M753.32 415.55c90.82 91.14 87.61 245.33-4.01 334.62-45.95 45.04-114.6 73.65-167.49 77.63-37.4 3.71-77.47 4.24-115.94-.53-56.63-6.89-97.5-22.52-137.57-37.63 20.3-19.6 40.61-46.62 48.89-69.94a53.857 53.857 0 00-1.61-42.66 228.104 228.104 0 0146.49-263.35c51.28-50.07 121.81-73.65 193.4-64.91a232.897 232.897 0 01137.84 66.77zM1024 64v896a63.995 63.995 0 01-64 64H64a63.995 63.995 0 01-64-64V64A63.995 63.995 0 0164 0h896a63.995 63.995 0 0164 64zM804.87 357a314.804 314.804 0 00-110.86-71.8c23.51-69.15 106.86-94.32 106.86-94.32S606.39 89.94 391.62 130.21c-71.59 11.39-140.24 55.37-190.46 113.39a298.427 298.427 0 0032.32 423.38c19.5 16.69 63.04 42.65 63.85 43.98-28.59 72.59-119.95 92.46-119.95 92.46s120.75 75.51 282.89 95.12a595.484 595.484 0 00135.97 1.58c75.07-6.09 149.86-45.83 206.76-101.73C926.15 677.04 927.22 479.4 804.87 357z"/></svg>
